modernHome/img/title-sm.svg

<svg width="331" height="78" xmlns="http://www.w3.org/2000/svg">

 <g>
  <title>background</title>
  <rect fill="none" id="canvas_background" height="402" width="582" y="-1" x="-1"/>
 </g>
 <g>
  <title>Layer 1</title>
  <path id="svg_1" fill="#FABC14" d="m127.418719,25.671233c0,4.9705 -3.806,9 -8.5,9c-4.694,0 -8.5,-4.0295 -8.5,-9c0,-4.9706 3.806,-9 8.5,-9c4.694,0 8.5,4.0294 8.5,9z"/>
  <path id="svg_2" fill="black" d="m12.3251,36.955l0,-9.6254l-6.40141,9.6254l-5.92369,0l7.96195,-11.1384l-7.51608,-10.3337l5.60521,0l6.27402,9.2069l0,-9.2069l4.9046,0l0,9.2069l6.274,-9.2069l5.6052,0l-7.5161,10.3337l7.9938,11.1384l-5.9237,0l-6.4332,-9.6254l0,9.6254l-4.9046,0z"/>
  <path id="svg_3" fill="black" d="m35.778,15.4829l4.9046,0l0,14.0358l9.8409,-14.2934l4.3313,0l0,21.7297l-4.9045,0l0,-14.0679l-9.841,14.3255l-4.3313,0l0,-21.7297z"/>
  <path id="svg_4" fill="black" d="m75.2411,19.6679l-4.6497,0l0,17.2871l-4.9046,0l0,-17.2871l-4.5861,0l0,-4.185l14.1404,0l0,4.185z"/>
  <path id="svg_5" fill="black" d="m83.584,15.4829l15.4462,0l0,21.4721l-4.9046,0l0,-17.2871l-5.7644,0l0,7.372c0,4.1849 -0.7113,7.0071 -2.1338,8.4665c-1.1253,1.1374 -2.7177,1.7062 -4.7772,1.7062c-0.6794,0 -1.3376,-0.0859 -1.9745,-0.2576l0,-4.4425c0.3397,0.1288 0.7431,0.1932 1.2102,0.1932c0.828,0 1.4756,-0.2361 1.9427,-0.7083c0.6369,-0.6438 0.9554,-2.1461 0.9554,-4.5069l0,-12.0076z"/>
  <path id="svg_6" fill="black" d="m117.956,15c3.355,0 6.094,1.0409 8.217,3.1226c2.208,2.1676 3.312,4.8718 3.312,8.1125c0,3.1977 -1.104,5.8804 -3.312,8.048c-2.144,2.1032 -4.883,3.1548 -8.217,3.1548c-3.354,0 -6.115,-1.0516 -8.28,-3.1548c-1.041,-0.9872 -1.858,-2.1676 -2.452,-3.5411c-0.574,-1.395 -0.86,-2.8759 -0.86,-4.4426c0,-1.5023 0.297,-2.9831 0.891,-4.4425c0.616,-1.4808 1.412,-2.7148 2.389,-3.7021c2.081,-2.1032 4.851,-3.1548 8.312,-3.1548zm-0.032,4.5713c-1.889,0 -3.439,0.6116 -4.649,1.8349c-1.253,1.2233 -1.879,2.8437 -1.879,4.861c0,1.9316 0.647,3.5412 1.942,4.8289c1.232,1.1803 2.75,1.7705 4.555,1.7705c1.932,0 3.503,-0.6116 4.713,-1.8349c1.231,-1.2019 1.847,-2.8007 1.847,-4.7966c0,-1.9745 -0.616,-3.5841 -1.847,-4.8289c-1.253,-1.2233 -2.813,-1.8349 -4.682,-1.8349z"/>
  <path id="svg_7" fill="black" d="m152.797,15.4829l0,8.1768l8.471,0l0,-8.1768l4.905,0l0,21.4721l-4.905,0l0,-9.1103l-8.471,0l0,9.1103l-4.905,0l0,-21.4721l4.905,0z"/>
  <path id="svg_8" fill="black" d="m188.553,36.955l-1.592,-4.0562l-8.026,0l-1.624,4.0562l-5.096,0l8.567,-21.4721l4.491,0l8.376,21.4721l-5.096,0zm-8.185,-7.8548l5.255,0l-2.611,-7.2111l-2.644,7.2111z"/>
  <path id="svg_9" fill="black" d="m225.31,15.4829l0,21.4721l-4.904,0l0,-7.8227l-0.637,0l-5,7.8227l-5.669,0l6.115,-8.4021c-1.211,-0.2146 -2.219,-0.719 -3.026,-1.513c-1.189,-1.116 -1.783,-2.7042 -1.783,-4.7645c0,-1.91 0.573,-3.4767 1.719,-4.7c1.338,-1.395 3.302,-2.0925 5.892,-2.0925l7.293,0zm-4.904,9.8508l0,-5.7946l-1.147,0c-1.316,0 -2.282,0.2575 -2.898,0.7726c-0.616,0.558 -0.923,1.277 -0.923,2.1569c0,0.8584 0.276,1.5452 0.828,2.0603c0.594,0.5365 1.592,0.8048 2.993,0.8048l1.147,0z"/>
  <path id="svg_10" fill="black" d="m238.513,15.4829l0,8.9494l7.262,-8.9494l5.987,0l-8.599,10.1727l9.268,11.2994l-6.306,0l-7.612,-9.5288l0,9.5288l-4.904,0l0,-21.4721l4.904,0z"/>
  <path id="svg_11" fill="black" d="m270.613,15.4829l0,4.185l-7.102,0l0,4.1527l6.752,0l0,4.185l-6.752,0l0,4.7645l7.102,0l0,4.1849l-12.006,0l0,-21.4721l12.006,0z"/>
  <path id="svg_12" fill="black" d="m289.351,15.4829l6.497,0c2.463,0 4.268,0.5472 5.414,1.6418c1.019,0.9872 1.529,2.3393 1.529,4.0562c0,1.0731 -0.234,1.9852 -0.701,2.7363c-0.424,0.7082 -1.019,1.2341 -1.783,1.5774c1.189,0.1932 2.165,0.6761 2.93,1.4487c0.913,0.9228 1.369,2.1998 1.369,3.8308c0,1.7813 -0.552,3.23 -1.656,4.346c-1.253,1.2233 -3.121,1.8349 -5.605,1.8349l-7.994,0l0,-21.4721zm4.841,3.863l0,4.861l0.796,0c1.104,0 1.932,-0.2038 2.484,-0.6116c0.574,-0.4078 0.86,-1.0409 0.86,-1.8993c0,-0.7726 -0.276,-1.3736 -0.828,-1.8028c-0.467,-0.3648 -1.316,-0.5473 -2.548,-0.5473l-0.764,0zm0,8.531l0,5.2151l1.178,0c1.805,0 3.015,-0.2898 3.631,-0.8692c0.467,-0.4292 0.701,-1.0302 0.701,-1.8028c0,-0.7511 -0.223,-1.3306 -0.669,-1.7383c-0.573,-0.5366 -1.741,-0.8048 -3.503,-0.8048l-1.338,0z"/>
  <path id="svg_13" fill="black" d="m311.923,15.4829l4.905,0l0,14.0358l9.841,-14.2934l4.331,0l0,21.7297l-4.905,0l0,-14.0679l-9.84,14.3255l-4.332,0l0,-21.7297z"/>
  <path id="svg_14" fill="black" d="m36.0019,61.7752l-2.1656,-3.7987c0.8493,-0.7082 1.8153,-1.2555 2.8981,-1.6418c1.3376,-0.5151 2.7177,-0.7726 4.1402,-0.7726c2.4842,0 4.3844,0.6546 5.7008,1.9637c1.0828,1.0731 1.6242,2.4788 1.6242,4.2172c0,1.073 -0.276,2.0066 -0.828,2.8007c-0.4883,0.7082 -1.1678,1.234 -2.0383,1.5774c1.0829,0.3219 1.9534,0.8263 2.6116,1.513c0.9554,0.9658 1.4331,2.2427 1.4331,3.8309c0,1.674 -0.5733,3.1119 -1.7198,4.3137c-1.4437,1.4809 -3.5775,2.2213 -6.4014,2.2213c-2.0382,0 -3.7368,-0.3112 -5.0956,-0.9336c-1.1041,-0.4721 -2.1975,-1.2233 -3.2803,-2.2534l2.7389,-3.6377c0.6369,0.7511 1.3588,1.3413 2.1656,1.7705c0.8705,0.4507 1.8366,0.6761 2.8982,0.6761c1.0191,0 1.8365,-0.2146 2.4522,-0.6439c0.6795,-0.4936 1.0192,-1.1589 1.0192,-1.9959c0,-0.7082 -0.2548,-1.2769 -0.7644,-1.7062c-0.6794,-0.5365 -2.0276,-0.8048 -4.0446,-0.8048l-0.7962,0l0,-3.9918l0.7325,0c1.741,0 2.9087,-0.279 3.5032,-0.837c0.4034,-0.3648 0.6051,-0.8477 0.6051,-1.4486c0,-0.6868 -0.2866,-1.2448 -0.8599,-1.674c-0.5095,-0.3863 -1.2527,-0.5795 -2.2293,-0.5795c-0.8281,0 -1.6243,0.1824 -2.3886,0.5473c-0.637,0.279 -1.2739,0.7082 -1.9109,1.2877z"/>
  <path id="svg_15" fill="black" d="m70.7747,77.5171l-1.5923,-4.0562l-8.0257,0l-1.6242,4.0562l-5.0957,0l8.5671,-21.4721l4.4905,0l8.376,21.4721l-5.0957,0zm-8.1848,-7.8549l5.2548,0l-2.6115,-7.211l-2.6433,7.211z"/>
  <path id="svg_16" fill="black" d="m97.2333,71.1431l0,5.698c-1.5075,0.7726 -3.068,1.1589 -4.6816,1.1589c-3.4608,0 -6.2422,-1.0409 -8.3442,-3.1226c-2.2081,-2.1676 -3.3121,-4.8825 -3.3121,-8.1446c0,-3.2193 1.104,-5.9127 3.3121,-8.0803c2.102,-2.0603 4.7454,-3.0904 7.9301,-3.0904c1.5712,0 3.2697,0.397 5.0957,1.1911l0,5.7302c-1.4226,-1.5238 -3.0786,-2.2857 -4.9683,-2.2857c-1.741,0 -3.1848,0.558 -4.3313,1.674c-1.3376,1.3092 -2.0064,2.9617 -2.0064,4.9576c0,1.953 0.6157,3.5304 1.8472,4.7323c1.189,1.2018 2.7177,1.8027 4.5861,1.8027c1.7622,0 3.3865,-0.7404 4.8727,-2.2212z"/>
  <path id="svg_17" fill="black" d="m106.93,56.045l15.446,0l0,21.4721l-4.904,0l0,-17.2872l-5.765,0l0,7.372c0,4.185 -0.711,7.0072 -2.134,8.4666c-1.125,1.1374 -2.717,1.7062 -4.777,1.7062c-0.679,0 -1.337,-0.0859 -1.974,-0.2576l0,-4.4425c0.339,0.1288 0.743,0.1932 1.21,0.1932c0.828,0 1.475,-0.2361 1.943,-0.7083c0.636,-0.6438 0.955,-2.1461 0.955,-4.5069l0,-12.0076z"/>
  <path id="svg_18" fill="black" d="m128.499,56.045l5.478,0l4.459,9.9151l4.267,-9.9151l5.287,0l-9.713,21.4721l-5.287,0l3.089,-6.1809l-7.58,-15.2912z"/>
  <path id="svg_19" fill="black" d="m166.082,56.045l0,4.1849l-7.007,0l0,17.2872l-4.904,0l0,-21.4721l11.911,0z"/>
  <path id="svg_20" fill="black" d="m181.532,55.5621c3.355,0 6.094,1.0409 8.217,3.1226c2.208,2.1676 3.312,4.8718 3.312,8.1124c0,3.1978 -1.104,5.8805 -3.312,8.0481c-2.144,2.1032 -4.883,3.1548 -8.217,3.1548c-3.354,0 -6.114,-1.0516 -8.28,-3.1548c-1.04,-0.9873 -1.858,-2.1676 -2.452,-3.5412c-0.574,-1.395 -0.86,-2.8758 -0.86,-4.4425c0,-1.5023 0.297,-2.9831 0.892,-4.4425c0.615,-1.4808 1.411,-2.7149 2.388,-3.7021c2.081,-2.1032 4.852,-3.1548 8.312,-3.1548zm-0.031,4.5713c-1.89,0 -3.44,0.6116 -4.65,1.8349c-1.253,1.2233 -1.879,2.8437 -1.879,4.861c0,1.9316 0.647,3.5412 1.942,4.8288c1.232,1.1804 2.75,1.7706 4.555,1.7706c1.932,0 3.503,-0.6116 4.713,-1.8349c1.232,-1.2019 1.847,-2.8008 1.847,-4.7967c0,-1.9744 -0.615,-3.584 -1.847,-4.8288c-1.253,-1.2233 -2.813,-1.8349 -4.681,-1.8349z"/>
  <path id="svg_21" fill="black" d="m200.373,56.045l6.497,0c2.462,0 4.267,0.5472 5.414,1.6418c1.019,0.9872 1.528,2.3393 1.528,4.0562c0,1.073 -0.233,1.9852 -0.7,2.7363c-0.425,0.7082 -1.019,1.234 -1.784,1.5774c1.189,0.1932 2.166,0.6761 2.93,1.4487c0.913,0.9228 1.37,2.1998 1.37,3.8308c0,1.7813 -0.552,3.23 -1.656,4.346c-1.253,1.2233 -3.121,1.8349 -5.606,1.8349l-7.993,0l0,-21.4721zm4.84,3.863l0,4.861l0.797,0c1.104,0 1.932,-0.2038 2.484,-0.6116c0.573,-0.4078 0.86,-1.0409 0.86,-1.8994c0,-0.7726 -0.276,-1.3735 -0.828,-1.8027c-0.467,-0.3649 -1.317,-0.5473 -2.548,-0.5473l-0.765,0zm0,8.5309l0,5.2152l1.179,0c1.805,0 3.015,-0.2898 3.63,-0.8692c0.468,-0.4293 0.701,-1.0302 0.701,-1.8028c0,-0.7511 -0.223,-1.3306 -0.669,-1.7384c-0.573,-0.5365 -1.741,-0.8048 -3.503,-0.8048l-1.338,0z"/>
  <path id="svg_22" fill="black" d="m220.063,56.045l5.478,0l4.458,9.9151l4.268,-9.9151l5.287,0l-9.714,21.4721l-5.286,0l3.089,-6.1809l-7.58,-15.2912z"/>
  <path id="svg_23" fill="black" d="m260.974,71.2718l0,5.2152c-1.698,1.0087 -3.8,1.513 -6.306,1.513c-1.507,0 -2.877,-0.1932 -4.108,-0.5795c-1.231,-0.3863 -2.389,-1.1374 -3.471,-2.2534c-2.017,-2.0818 -3.026,-4.8932 -3.026,-8.4343c0,-3.5197 1.019,-6.2882 3.057,-8.3056c1.911,-1.9101 4.502,-2.8651 7.771,-2.8651c2.102,0 4.13,0.5151 6.083,1.5452l0,5.2795c-0.785,-0.6867 -1.518,-1.1911 -2.197,-1.513c-1.062,-0.5366 -2.23,-0.8048 -3.504,-0.8048c-1.783,0 -3.195,0.4721 -4.235,1.4164c-0.892,0.7941 -1.465,1.8564 -1.72,3.1871l8.153,0l0,3.9918l-8.185,0c0.191,1.4808 0.839,2.6719 1.943,3.5733c1.019,0.837 2.41,1.2555 4.172,1.2555c1.316,0 2.452,-0.2361 3.408,-0.7082c0.721,-0.3434 1.443,-0.8477 2.165,-1.5131z"/>
  <path id="svg_24" fill="black" d="m281.31,60.2299l-4.65,0l0,17.2872l-4.904,0l0,-17.2872l-4.586,0l0,-4.1849l14.14,0l0,4.1849z"/>
  <path id="svg_25" fill="black" d="m299.558,56.045l0,4.1849l-7.102,0l0,4.1528l6.751,0l0,4.185l-6.751,0l0,4.7644l7.102,0l0,4.185l-12.007,0l0,-21.4721l12.007,0z"/>
  <path id="svg_26" fill="#FABC14" d="m124.484887,6.269006c0.519,-1.21698 1.927,-1.78244 3.144,-1.26298c1.217,0.51945 1.782,1.92712 1.263,3.1441l-1.612,3.7775c-0.52,1.21698 -1.928,1.78245 -3.145,1.26298c-1.217,-0.51945 -1.782,-1.92712 -1.263,-3.1441l1.613,-3.7775z"/>
  <path id="svg_27" fill="#FABC14" d="m135.715348,13.619654c1.213,-0.5277 2.625,0.0283 3.152,1.2417c0.528,1.2135 -0.028,2.6249 -1.242,3.1526l-3.766,1.6378c-1.214,0.5276 -2.625,-0.0284 -3.153,-1.2418c-0.527,-1.2135 0.029,-2.6249 1.242,-3.1526l3.767,-1.6377z"/>
  <path id="svg_28" fill="#FABC14" d="m138.491461,25.386211c1.278,0.3424 2.036,1.6562 1.694,2.9343c-0.343,1.2781 -1.656,2.0366 -2.934,1.6942l-3.968,-1.0631c-1.278,-0.3424 -2.036,-1.6562 -1.694,-2.9343c0.343,-1.2781 1.656,-2.0366 2.935,-1.6942l3.967,1.0631z"/>
  <path id="svg_29" fill="#FABC14" d="m110.120092,8.123387c-0.387,-1.26554 0.326,-2.6047 1.591,-2.99111c1.266,-0.3864 2.605,0.32627 2.992,1.5918l1.199,3.9282c0.386,1.26553 -0.326,2.60469 -1.592,2.9911c-1.265,0.38641 -2.605,-0.32627 -2.991,-1.5918l-1.199,-3.92819z"/>
 </g>
</svg>

<svg width="331" height="78" viewBox="0 0 331 78" fill="none" xmlns="http://www.w3.org/2000/svg">
<path d="M122 24.1934C122 29.1639 118.194 33.1934 113.5 33.1934C108.806 33.1934 105 29.1639 105 24.1934C105 19.2228 108.806 15.1934 113.5 15.1934C118.194 15.1934 122 19.2228 122 24.1934Z" fill="#FABC14"/>
<path d="M12.3251 36.955V27.3296L5.92369 36.955H0L7.96195 25.8166L0.445869 15.4829H6.05108L12.3251 24.6898V15.4829H17.2297V24.6898L23.5037 15.4829H29.1089L21.5928 25.8166L29.5866 36.955H23.6629L17.2297 27.3296V36.955H12.3251Z" fill="black"/>
<path d="M35.778 15.4829H40.6826V29.5187L50.5235 15.2253H54.8548V36.955H49.9503V22.8871L40.1093 37.2126H35.778V15.4829Z" fill="black"/>
<path d="M75.2411 19.6679H70.5914V36.955H65.6868V19.6679H61.1007V15.4829H75.2411V19.6679Z" fill="black"/>
<path d="M83.584 15.4829H99.0302V36.955H94.1256V19.6679H88.3612V27.0399C88.3612 31.2248 87.6499 34.047 86.2274 35.5064C85.1021 36.6438 83.5097 37.2126 81.4502 37.2126C80.7708 37.2126 80.1126 37.1267 79.4757 36.955V32.5125C79.8154 32.6413 80.2188 32.7057 80.6859 32.7057C81.5139 32.7057 82.1615 32.4696 82.6286 31.9974C83.2655 31.3536 83.584 29.8513 83.584 27.4905V15.4829Z" fill="black"/>
<path d="M117.956 15C121.311 15 124.05 16.0409 126.173 18.1226C128.381 20.2902 129.485 22.9944 129.485 26.2351C129.485 29.4328 128.381 32.1155 126.173 34.2831C124.029 36.3863 121.29 37.4379 117.956 37.4379C114.602 37.4379 111.841 36.3863 109.676 34.2831C108.635 33.2959 107.818 32.1155 107.224 30.742C106.65 29.347 106.364 27.8661 106.364 26.2994C106.364 24.7971 106.661 23.3163 107.255 21.8569C107.871 20.3761 108.667 19.1421 109.644 18.1548C111.725 16.0516 114.495 15 117.956 15ZM117.924 19.5713C116.035 19.5713 114.485 20.1829 113.275 21.4062C112.022 22.6295 111.396 24.2499 111.396 26.2672C111.396 28.1988 112.043 29.8084 113.338 31.0961C114.57 32.2764 116.088 32.8666 117.893 32.8666C119.825 32.8666 121.396 32.255 122.606 31.0317C123.837 29.8298 124.453 28.231 124.453 26.2351C124.453 24.2606 123.837 22.651 122.606 21.4062C121.353 20.1829 119.793 19.5713 117.924 19.5713Z" fill="black"/>
<path d="M152.797 15.4829V23.6597H161.268V15.4829H166.173V36.955H161.268V27.8447H152.797V36.955H147.892V15.4829H152.797Z" fill="black"/>
<path d="M188.553 36.955L186.961 32.8988H178.935L177.311 36.955H172.215L180.782 15.4829H185.273L193.649 36.955H188.553ZM180.368 29.1002H185.623L183.012 21.8891L180.368 29.1002Z" fill="black"/>
<path d="M225.31 15.4829V36.955H220.406V29.1323H219.769L214.769 36.955H209.1L215.215 28.5529C214.004 28.3383 212.996 27.8339 212.189 27.0399C211 25.9239 210.406 24.3357 210.406 22.2754C210.406 20.3654 210.979 18.7987 212.125 17.5754C213.463 16.1804 215.427 15.4829 218.017 15.4829H225.31ZM220.406 25.3337V19.5391H219.259C217.943 19.5391 216.977 19.7966 216.361 20.3117C215.745 20.8697 215.438 21.5887 215.438 22.4686C215.438 23.327 215.714 24.0138 216.266 24.5289C216.86 25.0654 217.858 25.3337 219.259 25.3337H220.406Z" fill="black"/>
<path d="M238.513 15.4829V24.4323L245.775 15.4829H251.762L243.163 25.6556L252.431 36.955H246.125L238.513 27.4262V36.955H233.609V15.4829H238.513Z" fill="black"/>
<path d="M270.613 15.4829V19.6679H263.511V23.8206H270.263V28.0056H263.511V32.7701H270.613V36.955H258.607V15.4829H270.613Z" fill="black"/>
<path d="M289.351 15.4829H295.848C298.311 15.4829 300.116 16.0301 301.262 17.1247C302.281 18.1119 302.791 19.464 302.791 21.1809C302.791 22.254 302.557 23.1661 302.09 23.9172C301.666 24.6254 301.071 25.1513 300.307 25.4946C301.496 25.6878 302.472 26.1707 303.237 26.9433C304.15 27.8661 304.606 29.1431 304.606 30.7741C304.606 32.5554 304.054 34.0041 302.95 35.1201C301.697 36.3434 299.829 36.955 297.345 36.955H289.351V15.4829ZM294.192 19.3459V24.2069H294.988C296.092 24.2069 296.92 24.0031 297.472 23.5953C298.046 23.1875 298.332 22.5544 298.332 21.696C298.332 20.9234 298.056 20.3224 297.504 19.8932C297.037 19.5284 296.188 19.3459 294.956 19.3459H294.192ZM294.192 27.8769V33.092H295.37C297.175 33.092 298.385 32.8022 299.001 32.2228C299.468 31.7936 299.702 31.1926 299.702 30.42C299.702 29.6689 299.479 29.0894 299.033 28.6817C298.46 28.1451 297.292 27.8769 295.53 27.8769H294.192Z" fill="black"/>
<path d="M311.923 15.4829H316.828V29.5187L326.669 15.2253H331V36.955H326.095V22.8871L316.255 37.2126H311.923V15.4829Z" fill="black"/>
<path d="M36.0019 61.7752L33.8363 57.9765C34.6856 57.2683 35.6516 56.721 36.7344 56.3347C38.072 55.8196 39.4521 55.5621 40.8746 55.5621C43.3588 55.5621 45.259 56.2167 46.5754 57.5258C47.6582 58.5989 48.1996 60.0046 48.1996 61.743C48.1996 62.816 47.9236 63.7496 47.3716 64.5437C46.8833 65.2519 46.2038 65.7777 45.3333 66.1211C46.4162 66.443 47.2867 66.9474 47.9449 67.6341C48.9003 68.5999 49.378 69.8768 49.378 71.465C49.378 73.139 48.8047 74.5769 47.6582 75.7787C46.2145 77.2596 44.0807 78 41.2568 78C39.2186 78 37.52 77.6888 36.1612 77.0664C35.0571 76.5943 33.9637 75.8431 32.8809 74.813L35.6198 71.1753C36.2567 71.9264 36.9786 72.5166 37.7854 72.9458C38.6559 73.3965 39.622 73.6219 40.6836 73.6219C41.7027 73.6219 42.5201 73.4073 43.1358 72.978C43.8153 72.4844 44.155 71.8191 44.155 70.9821C44.155 70.2739 43.9002 69.7052 43.3906 69.2759C42.7112 68.7394 41.363 68.4711 39.346 68.4711H38.5498V64.4793H39.2823C41.0233 64.4793 42.191 64.2003 42.7855 63.6423C43.1889 63.2775 43.3906 62.7946 43.3906 62.1937C43.3906 61.5069 43.104 60.9489 42.5307 60.5197C42.0212 60.1334 41.278 59.9402 40.3014 59.9402C39.4733 59.9402 38.6771 60.1226 37.9128 60.4875C37.2758 60.7665 36.6389 61.1957 36.0019 61.7752Z" fill="black"/>
<path d="M70.7747 77.5171L69.1824 73.4609H61.1567L59.5325 77.5171H54.4368L63.0039 56.045H67.4944L75.8704 77.5171H70.7747ZM62.5899 69.6622H67.8447L65.2332 62.4512L62.5899 69.6622Z" fill="black"/>
<path d="M97.2333 71.1431V76.8411C95.7258 77.6137 94.1653 78 92.5517 78C89.0909 78 86.3095 76.9591 84.2075 74.8774C81.9994 72.7098 80.8954 69.9949 80.8954 66.7328C80.8954 63.5135 81.9994 60.8201 84.2075 58.6525C86.3095 56.5922 88.9529 55.5621 92.1376 55.5621C93.7088 55.5621 95.4073 55.9591 97.2333 56.7532V62.4834C95.8107 60.9596 94.1547 60.1977 92.265 60.1977C90.524 60.1977 89.0802 60.7557 87.9337 61.8717C86.5961 63.1809 85.9273 64.8334 85.9273 66.8293C85.9273 68.7823 86.543 70.3597 87.7745 71.5616C88.9635 72.7634 90.4922 73.3643 92.3606 73.3643C94.1228 73.3643 95.7471 72.6239 97.2333 71.1431Z" fill="black"/>
<path d="M106.93 56.045H122.376V77.5171H117.472V60.2299H111.707V67.6019C111.707 71.7869 110.996 74.6091 109.573 76.0685C108.448 77.2059 106.856 77.7747 104.796 77.7747C104.117 77.7747 103.459 77.6888 102.822 77.5171V73.0746C103.161 73.2034 103.565 73.2678 104.032 73.2678C104.86 73.2678 105.507 73.0317 105.975 72.5595C106.611 71.9157 106.93 70.4134 106.93 68.0526V56.045Z" fill="black"/>
<path d="M128.499 56.045H133.977L138.436 65.9601L142.703 56.045H147.99L138.277 77.5171H132.99L136.079 71.3362L128.499 56.045Z" fill="black"/>
<path d="M166.082 56.045V60.2299H159.075V77.5171H154.171V56.045H166.082Z" fill="black"/>
<path d="M181.532 55.5621C184.887 55.5621 187.626 56.603 189.749 58.6847C191.957 60.8523 193.061 63.5565 193.061 66.7971C193.061 69.9949 191.957 72.6776 189.749 74.8452C187.605 76.9484 184.866 78 181.532 78C178.178 78 175.418 76.9484 173.252 74.8452C172.212 73.8579 171.394 72.6776 170.8 71.304C170.226 69.909 169.94 68.4282 169.94 66.8615C169.94 65.3592 170.237 63.8784 170.832 62.419C171.447 60.9382 172.243 59.7041 173.22 58.7169C175.301 56.6137 178.072 55.5621 181.532 55.5621ZM181.501 60.1334C179.611 60.1334 178.061 60.745 176.851 61.9683C175.598 63.1916 174.972 64.812 174.972 66.8293C174.972 68.7609 175.619 70.3705 176.914 71.6581C178.146 72.8385 179.664 73.4287 181.469 73.4287C183.401 73.4287 184.972 72.8171 186.182 71.5938C187.414 70.3919 188.029 68.793 188.029 66.7971C188.029 64.8227 187.414 63.2131 186.182 61.9683C184.929 60.745 183.369 60.1334 181.501 60.1334Z" fill="black"/>
<path d="M200.373 56.045H206.87C209.332 56.045 211.137 56.5922 212.284 57.6868C213.303 58.674 213.812 60.0261 213.812 61.743C213.812 62.816 213.579 63.7282 213.112 64.4793C212.687 65.1875 212.093 65.7133 211.328 66.0567C212.517 66.2499 213.494 66.7328 214.258 67.5054C215.171 68.4282 215.628 69.7052 215.628 71.3362C215.628 73.1175 215.076 74.5662 213.972 75.6822C212.719 76.9055 210.851 77.5171 208.366 77.5171H200.373V56.045ZM205.213 59.908V64.769H206.01C207.114 64.769 207.942 64.5652 208.494 64.1574C209.067 63.7496 209.354 63.1165 209.354 62.258C209.354 61.4854 209.078 60.8845 208.526 60.4553C208.059 60.0904 207.209 59.908 205.978 59.908H205.213ZM205.213 68.4389V73.6541H206.392C208.197 73.6541 209.407 73.3643 210.022 72.7849C210.49 72.3556 210.723 71.7547 210.723 70.9821C210.723 70.231 210.5 69.6515 210.054 69.2437C209.481 68.7072 208.313 68.4389 206.551 68.4389H205.213Z" fill="black"/>
<path d="M220.063 56.045H225.541L229.999 65.9601L234.267 56.045H239.554L229.84 77.5171H224.554L227.643 71.3362L220.063 56.045Z" fill="black"/>
<path d="M260.974 71.2718V76.487C259.276 77.4957 257.174 78 254.668 78C253.161 78 251.791 77.8068 250.56 77.4205C249.329 77.0342 248.171 76.2831 247.089 75.1671C245.072 73.0853 244.063 70.2739 244.063 66.7328C244.063 63.2131 245.082 60.4446 247.12 58.4272C249.031 56.5171 251.622 55.5621 254.891 55.5621C256.993 55.5621 259.021 56.0772 260.974 57.1073V62.3868C260.189 61.7001 259.456 61.1957 258.777 60.8738C257.715 60.3372 256.547 60.069 255.273 60.069C253.49 60.069 252.078 60.5411 251.038 61.4854C250.146 62.2795 249.573 63.3418 249.318 64.6725H257.471V68.6643H249.286C249.477 70.1451 250.125 71.3362 251.229 72.2376C252.248 73.0746 253.639 73.4931 255.401 73.4931C256.717 73.4931 257.853 73.257 258.809 72.7849C259.53 72.4415 260.252 71.9372 260.974 71.2718Z" fill="black"/>
<path d="M281.31 60.2299H276.66V77.5171H271.756V60.2299H267.17V56.045H281.31V60.2299Z" fill="black"/>
<path d="M299.558 56.045V60.2299H292.456V64.3827H299.207V68.5677H292.456V73.3321H299.558V77.5171H287.551V56.045H299.558Z" fill="black"/>
<path d="M120.544 2.82073C121.063 1.60375 122.471 1.03829 123.688 1.55775C124.905 2.0772 125.47 3.48487 124.951 4.70185L123.339 8.47935C122.819 9.69633 121.411 10.2618 120.194 9.74233C118.977 9.22288 118.412 7.81521 118.931 6.59823L120.544 2.82073Z" fill="#FABC14"/>
<path d="M132.85 11.1566C134.063 10.6289 135.475 11.1849 136.002 12.3983C136.53 13.6118 135.974 15.0232 134.76 15.5509L130.994 17.1887C129.78 17.7163 128.369 17.1603 127.841 15.9469C127.314 14.7334 127.87 13.322 129.083 12.7943L132.85 11.1566Z" fill="#FABC14"/>
<path d="M137.143 24.8936C138.421 25.236 139.179 26.5498 138.837 27.8279C138.494 29.106 137.181 29.8645 135.903 29.5221L131.935 28.459C130.657 28.1166 129.899 26.8028 130.241 25.5247C130.584 24.2466 131.897 23.4881 133.176 23.8305L137.143 24.8936Z" fill="#FABC14"/>
<path d="M106.657 3.68989C106.27 2.42435 106.983 1.08519 108.248 0.698785C109.514 0.312378 110.853 1.02505 111.24 2.29058L112.439 6.21878C112.825 7.48431 112.113 8.82347 110.847 9.20988C109.582 9.59629 108.242 8.88361 107.856 7.61808L106.657 3.68989Z" fill="#FABC14"/>
</svg>
